X:216
U: ~ = !turn!
%%topmargin 3cm
T:Whelan's Jig
B:Traditional Irish Fiddle Tunes. Randy Miller and Jack Perron.
Z:Transcribed by Ralph Palmer
R:Jig
L:1/8
M:6/8
K:G
~E3 {/c}BAF | EBE BEB | ~E3 {/c}BAF | dAF PFED |
E2E {/c}BAF | EBE BEB | ~B3 {/c}BAF | dAF PFED ::
~B3 e2 e | fdB d^cd | ~B3 Pg2 e | fdB AFA |
~B3 e2 e | fdB d2 f | gbg faf | edB AFD :|]
